build/assets/img/stage-analysis/image-element-5.svg

<svg width="59" height="58" viewBox="0 0 59 58" fill="none" xmlns="http://www.w3.org/2000/svg">
<g filter="url(#filter0_d)">
<path d="M21.0616 24.5228H18.6624C17.7791 24.5228 17.063 25.2377 17.063 26.1197V37.4335C17.063 38.3155 17.7791 39.0304 18.6624 39.0304H21.0616C21.9449 39.0304 22.661 38.3155 22.661 37.4335V26.1197C22.661 25.2377 21.9449 24.5228 21.0616 24.5228Z" fill="#D6516B"/>
<path d="M28.7593 18.1537H26.3602C25.4768 18.1537 24.7607 18.8741 24.7607 19.7627V37.4215C24.7607 38.3102 25.4768 39.0306 26.3602 39.0306H28.7593C29.6427 39.0306 30.3588 38.3102 30.3588 37.4215V19.7627C30.3588 18.8741 29.6427 18.1537 28.7593 18.1537Z" fill="#C43B55"/>
<path d="M36.4556 14.969H34.0565C33.1731 14.969 32.457 15.6904 32.457 16.5804V37.4191C32.457 38.3091 33.1731 39.0305 34.0565 39.0305H36.4556C37.339 39.0305 38.055 38.3091 38.055 37.4191V16.5804C38.055 15.6904 37.339 14.969 36.4556 14.969Z" fill="#A62E41"/>
<path d="M5.51636 27C5.49192 21.6984 7.29603 16.5526 10.6207 12.441C13.9455 8.32934 18.5847 5.50676 23.7465 4.45503C28.9083 3.4033 34.2727 4.18764 38.924 6.67414C43.5753 9.16065 47.2252 13.1952 49.2506 18.0891M49.2506 18.0891L51 12.441M49.2506 18.0891L43.7984 15.8833" stroke="#F985A0" stroke-width="4" stroke-miterlimit="10" stroke-linecap="round" stroke-linejoin="round"/>
<path d="M5.51613 35.572L6.3857 33.7709C5.83607 33.5056 5.19535 33.5057 4.64583 33.7713C4.09631 34.0369 3.69813 34.5389 3.56459 35.1344L5.51613 35.572ZM2.04846 41.8957C1.80678 42.9735 2.48459 44.0432 3.5624 44.2849C4.6402 44.5266 5.70986 43.8487 5.95154 42.7709L2.04846 41.8957ZM10.7111 40.3011C11.7058 40.7813 12.9015 40.3643 13.3817 39.3696C13.862 38.3749 13.4449 37.1792 12.4502 36.6989L10.7111 40.3011ZM3.65529 36.305C5.77648 41.6901 9.69596 46.1627 14.7412 48.9468L16.6738 45.4446C12.449 43.1133 9.15915 39.3635 7.37697 34.839L3.65529 36.305ZM14.7412 48.9468C19.7869 51.731 25.6396 52.65 31.2872 51.5431L30.5179 47.6177C25.7944 48.5436 20.8982 47.7756 16.6738 45.4446L14.7412 48.9468ZM31.2872 51.5431C36.9347 50.4361 42.018 47.3739 45.6614 42.8901L42.557 40.3676C39.5005 44.1293 35.2416 46.6919 30.5179 47.6177L31.2872 51.5431ZM45.6614 42.8901C49.3044 38.4067 51.2798 32.7827 51.2503 26.9898L47.2503 27.0102C47.2752 31.8812 45.6139 36.6056 42.557 40.3676L45.6614 42.8901ZM3.56459 35.1344L2.04846 41.8957L5.95154 42.7709L7.46767 36.0096L3.56459 35.1344ZM4.64656 37.3731L10.7111 40.3011L12.4502 36.6989L6.3857 33.7709L4.64656 37.3731Z" fill="#F985A0"/>
</g>
<defs>
<filter id="filter0_d" x="-0.000488281" y="0" width="59.001" height="58" filterUnits="userSpaceOnUse" color-interpolation-filters="sRGB">
<feFlood flood-opacity="0" result="BackgroundImageFix"/>
<feColorMatrix in="SourceAlpha" type="matrix" values="0 0 0 0 0 0 0 0 0 0 0 0 0 0 0 0 0 0 127 0"/>
<feOffset dx="2" dy="2"/>
<feGaussianBlur stdDeviation="2"/>
<feColorMatrix type="matrix" values="0 0 0 0 0 0 0 0 0 0 0 0 0 0 0 0 0 0 0.15 0"/>
<feBlend mode="normal" in2="BackgroundImageFix" result="effect1_dropShadow"/>
<feBlend mode="normal" in="SourceGraphic" in2="effect1_dropShadow" result="shape"/>
</filter>
</defs>
</svg>

<svg width="59" height="58" fill="none" xmlns="http://www.w3.org/2000/svg"><g filter="url(#filter0_d)"><path d="M21.062 24.523h-2.4c-.883 0-1.599.715-1.599 1.597v11.314c0 .882.716 1.596 1.6 1.596h2.399c.883 0 1.599-.715 1.599-1.596V26.12c0-.882-.716-1.597-1.6-1.597z" fill="#D6516B"/><path d="M28.76 18.154h-2.4c-.883 0-1.6.72-1.6 1.609v17.659c0 .888.717 1.609 1.6 1.609h2.4c.883 0 1.599-.72 1.599-1.61V19.764c0-.889-.716-1.61-1.6-1.61z" fill="#C43B55"/><path d="M36.456 14.969h-2.4c-.883 0-1.599.721-1.599 1.611v20.84c0 .89.716 1.61 1.6 1.61h2.399c.883 0 1.599-.72 1.599-1.61V16.58c0-.89-.716-1.611-1.6-1.611z" fill="#A62E41"/><path d="M5.516 27a22.99 22.99 0 015.105-14.559 22.717 22.717 0 0113.126-7.986 22.609 22.609 0 0115.177 2.22 22.839 22.839 0 0110.327 11.414m0 0L51 12.441m-1.75 5.648l-5.452-2.206" stroke="#F985A0" stroke-width="4" stroke-miterlimit="10" stroke-linecap="round" stroke-linejoin="round"/><path d="M5.516 35.572l.87-1.801a2 2 0 00-2.821 1.363l1.951.438zm-3.468 6.324a2 2 0 003.904.875l-3.904-.875zm8.663-1.595a2 2 0 101.74-3.602L10.71 40.3zm-7.056-3.996a24.815 24.815 0 0011.086 12.642l1.933-3.502a20.814 20.814 0 01-9.297-10.606l-3.722 1.466zm11.086 12.642a24.486 24.486 0 0016.546 2.596l-.77-3.925a20.481 20.481 0 01-13.843-2.173l-1.933 3.502zm16.546 2.596a24.632 24.632 0 0014.374-8.653l-3.104-2.522a20.63 20.63 0 01-12.04 7.25l.77 3.925zm14.374-8.653a25.016 25.016 0 005.59-15.9l-4 .02a21.015 21.015 0 01-4.694 13.358l3.104 2.522zM3.565 35.134l-1.517 6.762 3.904.875 1.516-6.761-3.903-.876zm1.082 2.24L10.71 40.3l1.74-3.602-6.065-2.928-1.74 3.602z" fill="#F985A0"/></g><defs><filter id="filter0_d" x="0" y="0" width="59.001" height="58" filterUnits="userSpaceOnUse" color-interpolation-filters="sRGB"><feFlood flood-opacity="0" result="BackgroundImageFix"/><feColorMatrix in="SourceAlpha" values="0 0 0 0 0 0 0 0 0 0 0 0 0 0 0 0 0 0 127 0"/><feOffset dx="2" dy="2"/><feGaussianBlur stdDeviation="2"/><feColorMatrix values="0 0 0 0 0 0 0 0 0 0 0 0 0 0 0 0 0 0 0.15 0"/><feBlend in2="BackgroundImageFix" result="effect1_dropShadow"/><feBlend in="SourceGraphic" in2="effect1_dropShadow" result="shape"/></filter></defs></svg>
